static/img/drf-logo-white.svg

<svg height="44" viewBox="0 0 293 44" width="293" xmlns="http://www.w3.org/2000/svg"><g fill="#fff"><path d="m61.972 11.422c6.056 0 10.492 4.526 10.492 10.706 0 6.178-4.436 10.706-10.492 10.706h-7.769v-21.412zm0 4.281h-3.487v12.848h3.487c3.671 0 6.21-2.723 6.21-6.423 0-3.701-2.539-6.425-6.21-6.425z"/><path d="m82.222 17.173c4.711 0 8.228 3.241 8.228 8.013 0 4.773-3.517 8.015-8.228 8.015s-8.228-3.241-8.228-8.015c0-4.772 3.517-8.013 8.228-8.013m0 3.945c-2.294 0-4.068 1.62-4.068 4.067 0 2.448 1.774 4.068 4.068 4.068s4.068-1.62 4.068-4.068c0-2.447-1.774-4.067-4.068-4.067"/><path d="m100.958 17.172c.551 0 1.831.305 2.32.426v4.345c-.55-.184-2.014-.457-2.657-.457-2.66 0-3.853 1.499-3.853 4.435v6.913h-4.038v-15.294h3.885v2.508c.825-1.775 2.202-2.876 4.343-2.876"/><path d="m124.209 17.172c3.579 0 5.781 2.387 5.781 6.362v9.299h-4.068v-8.473c0-2.171-.948-3.305-2.753-3.305-2.478 0-3.365 1.867-3.365 4.468v7.31h-4.037v-8.473c0-2.171-.949-3.305-2.784-3.305-2.447 0-3.303 1.867-3.303 4.468v7.31h-4.038v-15.294h3.915v2.233c.918-1.47 2.386-2.601 4.772-2.601 2.264 0 3.885.979 4.741 2.846.918-1.652 2.6-2.845 5.139-2.845"/><path d="m166.252 16.673c4.711 0 8.228 3.241 8.228 8.013 0 4.773-3.517 8.015-8.228 8.015-4.712 0-8.229-3.241-8.229-8.015 0-4.772 3.517-8.013 8.229-8.013m0 3.945c-2.295 0-4.068 1.62-4.068 4.067 0 2.448 1.773 4.068 4.068 4.068 2.294 0 4.067-1.62 4.067-4.068 0-2.447-1.773-4.067-4.067-4.067"/><path d="m184.358 16.673c4.711 0 8.228 3.241 8.228 8.013 0 4.773-3.517 8.015-8.228 8.015-4.712 0-8.229-3.241-8.229-8.015.001-4.772 3.517-8.013 8.229-8.013m0 3.945c-2.294 0-4.068 1.62-4.068 4.067 0 2.448 1.774 4.068 4.068 4.068s4.067-1.62 4.067-4.068c.001-2.447-1.773-4.067-4.067-4.067"/><path d="m213.752 16.672c3.579 0 5.781 2.387 5.781 6.362v9.299h-4.068v-8.473c0-2.171-.948-3.305-2.753-3.305-2.479 0-3.365 1.867-3.365 4.468v7.31h-4.037v-8.473c0-2.171-.949-3.305-2.784-3.305-2.446 0-3.303 1.867-3.303 4.468v7.31h-4.038v-15.294h3.915v2.233c.918-1.47 2.386-2.601 4.772-2.601 2.264 0 3.885.979 4.74 2.846.919-1.652 2.601-2.845 5.14-2.845"/><path d="m240.649 10.921v4.282h-10.544v4.283h10.544v4.282h-10.544v8.565h-4.281v-21.412z"/><path d="m256.546 17.039v15.294h-3.915v-2.325c-1.04 1.562-2.57 2.692-4.864 2.692-3.548 0-5.292-2.386-5.292-6.147v-9.514h4.13v8.504c0 2.172.795 3.273 2.569 3.273 2.264 0 3.304-1.836 3.304-4.467v-7.311h4.068z"/><path d="m268.235 16.672c3.579 0 5.414 2.325 5.414 6.18v9.481h-4.129v-8.473c0-2.295-1.071-3.305-2.783-3.305-2.355 0-3.335 1.744-3.335 4.468v7.31h-4.037v-15.294h3.915v2.203c1.072-1.5 2.722-2.57 4.955-2.57"/><path d="m292.079 10.921v21.413h-4.037v-2.142c-1.101 1.56-2.845 2.539-5.077 2.539-3.794 0-6.975-2.876-6.975-8.046 0-5.169 3.181-8.045 6.914-8.045 2.385 0 4.098 1.133 5.138 2.601v-8.32zm-11.929 13.765c0 2.479 1.713 4.1 4.007 4.1 2.264 0 4.007-1.591 4.007-4.1 0-2.539-1.743-4.098-4.007-4.098-2.294 0-4.007 1.621-4.007 4.098z"/><path d="m157.397 29.567c-2.344.836-4.319-.6-5.553-2.968l-.944-1.812c1.98-1.324 3.2-3.568 3.2-6.24l-.017-.015c0-4.316-3.175-7.521-7.614-7.521h-.13-9.302v21.577h4.315v-6.504h4.964l.169-.016c.101 0 .198-.01.297-.015l1.448 2.779c2.181 4.187 6.859 5.666 11.148 3.578zm-7.63-11.005c0 1.85-1.233 3.207-3.298 3.207h-5.115v-6.443h5.117c2.066 0 3.299 1.357 3.299 3.206z"/><path d="m12.223 16.651c3.078 0 5.332 2.301 5.332 5.441 0 3.139-2.254 5.439-5.332 5.439h-3.948v-10.881h3.948zm0 2.176h-1.772v6.528h1.772c1.865 0 3.155-1.383 3.155-3.263-.001-1.881-1.291-3.265-3.155-3.265z"/><path d="m36.006 16.779v2.176h-4.85v2.176h4.85v2.177h-4.85v4.352h-2.176v-10.881z"/><path d="m28.997 27.672c.319-.088.637-.209.951-.372l-.869-1.484c-.028.015-.055.023-.082.035z"/><path d="m28.098 26.042c-.862-.027-1.584-.675-2.074-1.615l-.476-.914c.999-.667 1.613-1.799 1.613-3.146l-.007-.008c0-2.176-1.601-3.792-3.84-3.792h-.066-4.69v10.88h2.176v-3.278h2.503l.085-.01c.051 0 .1-.005.15-.007l.73 1.401c.809 1.555 2.303 2.367 3.896 2.27zm-3.122-5.667c0 .932-.622 1.615-1.663 1.615h-2.579v-3.248h2.58c1.042 0 1.663.685 1.663 1.616z"/><path d="m21.807 43.136c-11.671 0-21.167-9.495-21.167-21.167s9.496-21.167 21.167-21.167 21.167 9.495 21.167 21.167-9.496 21.167-21.167 21.167m0-39.334c-10.017 0-18.167 8.148-18.167 18.167 0 10.018 8.15 18.167 18.167 18.167s18.167-8.149 18.167-18.167c0-10.019-8.15-18.167-18.167-18.167"/></g></svg>

<?xml version="1.0" encoding="UTF-8"?>
<svg width="293px" height="44px" viewBox="0 0 293 44" version="1.1" xmlns="http://www.w3.org/2000/svg" xmlns:xlink="http://www.w3.org/1999/xlink">
    <!-- Generator: Sketch 42 (36781) - http://www.bohemiancoding.com/sketch -->
    <title>Group 4</title>
    <desc>Created with Sketch.</desc>
    <defs></defs>
    <g id="Page-1" stroke="none" stroke-width="1" fill="none" fill-rule="evenodd">
        <g id="Group-4" fill-rule="nonzero" fill="#FFFFFF">
            <path d="M61.972,11.422 C68.028,11.422 72.464,15.948 72.464,22.128 C72.464,28.306 68.028,32.834 61.972,32.834 L54.203,32.834 L54.203,11.422 L61.972,11.422 L61.972,11.422 Z M61.972,15.703 L58.485,15.703 L58.485,28.551 L61.972,28.551 C65.643,28.551 68.182,25.828 68.182,22.128 C68.182,18.427 65.643,15.703 61.972,15.703 L61.972,15.703 Z" id="Shape"></path>
            <path d="M82.222,17.173 C86.933,17.173 90.45,20.414 90.45,25.186 C90.45,29.959 86.933,33.201 82.222,33.201 C77.511,33.201 73.994,29.96 73.994,25.186 C73.994,20.414 77.511,17.173 82.222,17.173 M82.222,21.118 C79.928,21.118 78.154,22.738 78.154,25.185 C78.154,27.633 79.928,29.253 82.222,29.253 C84.516,29.253 86.29,27.633 86.29,25.185 C86.29,22.738 84.516,21.118 82.222,21.118" id="Shape"></path>
            <path d="M100.958,17.172 C101.509,17.172 102.789,17.477 103.278,17.598 L103.278,21.943 C102.728,21.759 101.264,21.486 100.621,21.486 C97.961,21.486 96.768,22.985 96.768,25.921 L96.768,32.834 L92.73,32.834 L92.73,17.54 L96.615,17.54 L96.615,20.048 C97.44,18.273 98.817,17.172 100.958,17.172" id="Shape"></path>
            <path d="M124.209,17.172 C127.788,17.172 129.99,19.559 129.99,23.534 L129.99,32.833 L125.922,32.833 L125.922,24.36 C125.922,22.189 124.974,21.055 123.169,21.055 C120.691,21.055 119.804,22.922 119.804,25.523 L119.804,32.833 L115.767,32.833 L115.767,24.36 C115.767,22.189 114.818,21.055 112.983,21.055 C110.536,21.055 109.68,22.922 109.68,25.523 L109.68,32.833 L105.642,32.833 L105.642,17.539 L109.557,17.539 L109.557,19.772 C110.475,18.302 111.943,17.171 114.329,17.171 C116.593,17.171 118.214,18.15 119.07,20.017 C119.988,18.365 121.67,17.172 124.209,17.172" id="Shape"></path>
            <path d="M166.252,16.673 C170.963,16.673 174.48,19.914 174.48,24.686 C174.48,29.459 170.963,32.701 166.252,32.701 C161.54,32.701 158.023,29.46 158.023,24.686 C158.023,19.914 161.54,16.673 166.252,16.673 M166.252,20.618 C163.957,20.618 162.184,22.238 162.184,24.685 C162.184,27.133 163.957,28.753 166.252,28.753 C168.546,28.753 170.319,27.133 170.319,24.685 C170.319,22.238 168.546,20.618 166.252,20.618" id="Shape"></path>
            <path d="M184.358,16.673 C189.069,16.673 192.586,19.914 192.586,24.686 C192.586,29.459 189.069,32.701 184.358,32.701 C179.646,32.701 176.129,29.46 176.129,24.686 C176.13,19.914 179.646,16.673 184.358,16.673 M184.358,20.618 C182.064,20.618 180.29,22.238 180.29,24.685 C180.29,27.133 182.064,28.753 184.358,28.753 C186.652,28.753 188.425,27.133 188.425,24.685 C188.426,22.238 186.652,20.618 184.358,20.618" id="Shape"></path>
            <path d="M213.752,16.672 C217.331,16.672 219.533,19.059 219.533,23.034 L219.533,32.333 L215.465,32.333 L215.465,23.86 C215.465,21.689 214.517,20.555 212.712,20.555 C210.233,20.555 209.347,22.422 209.347,25.023 L209.347,32.333 L205.31,32.333 L205.31,23.86 C205.31,21.689 204.361,20.555 202.526,20.555 C200.08,20.555 199.223,22.422 199.223,25.023 L199.223,32.333 L195.185,32.333 L195.185,17.039 L199.1,17.039 L199.1,19.272 C200.018,17.802 201.486,16.671 203.872,16.671 C206.136,16.671 207.757,17.65 208.612,19.517 C209.531,17.865 211.213,16.672 213.752,16.672" id="Shape"></path>
            <polygon id="Shape" points="240.649 10.921 240.649 15.203 230.105 15.203 230.105 19.486 240.649 19.486 240.649 23.768 230.105 23.768 230.105 32.333 225.824 32.333 225.824 10.921"></polygon>
            <path d="M256.546,17.039 L256.546,32.333 L252.631,32.333 L252.631,30.008 C251.591,31.57 250.061,32.7 247.767,32.7 C244.219,32.7 242.475,30.314 242.475,26.553 L242.475,17.039 L246.605,17.039 L246.605,25.543 C246.605,27.715 247.4,28.816 249.174,28.816 C251.438,28.816 252.478,26.98 252.478,24.349 L252.478,17.038 L256.546,17.038 L256.546,17.039 Z" id="Shape"></path>
            <path d="M268.235,16.672 C271.814,16.672 273.649,18.997 273.649,22.852 L273.649,32.333 L269.52,32.333 L269.52,23.86 C269.52,21.565 268.449,20.555 266.737,20.555 C264.382,20.555 263.402,22.299 263.402,25.023 L263.402,32.333 L259.365,32.333 L259.365,17.039 L263.28,17.039 L263.28,19.242 C264.352,17.742 266.002,16.672 268.235,16.672" id="Shape"></path>
            <path d="M292.079,10.921 L292.079,32.334 L288.042,32.334 L288.042,30.192 C286.941,31.752 285.197,32.731 282.965,32.731 C279.171,32.731 275.99,29.855 275.99,24.685 C275.99,19.516 279.171,16.64 282.904,16.64 C285.289,16.64 287.002,17.773 288.042,19.241 L288.042,10.921 L292.079,10.921 Z M280.15,24.686 C280.15,27.165 281.863,28.786 284.157,28.786 C286.421,28.786 288.164,27.195 288.164,24.686 C288.164,22.147 286.421,20.588 284.157,20.588 C281.863,20.588 280.15,22.209 280.15,24.686 L280.15,24.686 Z" id="Shape"></path>
            <path d="M157.397,29.567 C155.053,30.403 153.078,28.967 151.844,26.599 L150.9,24.787 C152.88,23.463 154.1,21.219 154.1,18.547 L154.083,18.532 C154.083,14.216 150.908,11.011 146.469,11.011 L146.339,11.011 L137.037,11.011 L137.037,32.588 L141.352,32.588 L141.352,26.084 L146.316,26.084 L146.485,26.068 C146.586,26.068 146.683,26.058 146.782,26.053 L148.23,28.832 C150.411,33.019 155.089,34.498 159.378,32.41 L157.397,29.567 Z M149.767,18.562 C149.767,20.412 148.534,21.769 146.469,21.769 L141.354,21.769 L141.354,15.326 L146.471,15.326 C148.537,15.326 149.77,16.683 149.77,18.532 L149.767,18.562 Z" id="Shape"></path>
            <path d="M12.223,16.651 C15.301,16.651 17.555,18.952 17.555,22.092 C17.555,25.231 15.301,27.531 12.223,27.531 L8.275,27.531 L8.275,16.65 L12.223,16.65 L12.223,16.651 Z M12.223,18.827 L10.451,18.827 L10.451,25.355 L12.223,25.355 C14.088,25.355 15.378,23.972 15.378,22.092 C15.377,20.211 14.087,18.827 12.223,18.827 L12.223,18.827 Z" id="Shape"></path>
            <polygon id="Shape" points="36.006 16.779 36.006 18.955 31.156 18.955 31.156 21.131 36.006 21.131 36.006 23.308 31.156 23.308 31.156 27.66 28.98 27.66 28.98 16.779"></polygon>
            <path d="M28.997,27.672 C29.316,27.584 29.634,27.463 29.948,27.3 L29.079,25.816 C29.051,25.831 29.024,25.839 28.997,25.851 L28.997,27.672 Z" id="Shape"></path>
            <path d="M28.098,26.042 C27.236,26.015 26.514,25.367 26.024,24.427 L25.548,23.513 C26.547,22.846 27.161,21.714 27.161,20.367 L27.154,20.359 C27.154,18.183 25.553,16.567 23.314,16.567 L23.248,16.567 L18.558,16.567 L18.558,27.447 L20.734,27.447 L20.734,24.169 L23.237,24.169 L23.322,24.159 C23.373,24.159 23.422,24.154 23.472,24.152 L24.202,25.553 C25.011,27.108 26.505,27.92 28.098,27.823 L28.098,26.042 Z M24.976,20.375 C24.976,21.307 24.354,21.99 23.313,21.99 L20.734,21.99 L20.734,18.742 L23.314,18.742 C24.356,18.742 24.977,19.427 24.977,20.358 L24.976,20.375 Z" id="Shape"></path>
            <path d="M21.807,43.136 C10.136,43.136 0.64,33.641 0.64,21.969 C0.64,10.297 10.136,0.802 21.807,0.802 C33.478,0.802 42.974,10.297 42.974,21.969 C42.974,33.641 33.478,43.136 21.807,43.136 M21.807,3.802 C11.79,3.802 3.64,11.95 3.64,21.969 C3.64,31.987 11.79,40.136 21.807,40.136 C31.824,40.136 39.974,31.987 39.974,21.969 C39.974,11.95 31.824,3.802 21.807,3.802" id="Shape"></path>
        </g>
    </g>
</svg>
